X: 11066
T: Duchess Of Buccleuch's Favourite, The
R: strathspey
M: 4/4
K: Gminor
D/E/|F>G G/F/E/D/ FDDB|F>GBD F2 FG|F>G G/F/E/D/ BFd>c|B>GFD C3
D/E/|F>G FD FDDB|F>G BD F3 d/e/|f>dec dBcA|B>GFD C3||
g|fdd>g fddg|fdb>d f2 fg|fddg fdd (3f/g/a/|b>gfd dcc
g|fudge fddg|g/f/e/d/ bd f2 (3fga|b/a/g/f/ g/f/e/d/ e/d/c/B/ d/c/B/A/|c/B/A/G/ G/F/E/D/ C3||

